X: 38206
T: Spring Wind, The
R: reel
M: 4/4
K: Edorian
|:BA|GEED EB,B,A,|B,2 EB, GB,FB,|EDEF GFGB|AFDF A=cBA|
GEED EB,B,A,|B,2 EB, GFGA|BABd edBA|(3GFE FD E2:|
|:gf|eB ~B2 GBeg|bagf edBc|dA ~A2 FAde|f3a gefd|
eB ~B2 GBFB|EGBe gfga|bgaf gefd|(3Bcd ef e2:|

